T: Petronella
M: 4/4
L: 1/8
K: Dmaj
F2 AF E2 AF | D2 C2 D2 A2 | d2 cd e2 d2 | cdBc A2 dA |F2 AF E2 AF | D2 C2 D2 F/G/A| d2 cd e2 c2 | d4 A2 D :|F2 fd A2 af | g2 gf edcB | A2 ec A2 ge| f2 fd AdAF |D2 fd A2 af | g3 f edcB | A2 ec Agec| d4 c2 d :|FG AF E2 AF | D2 D/D/D D2 F/G/A | d2 cd e2 d2 | c2 B/c/B AB AG |F2 F2 E2 E2 | DA, F,A, D3 A| d2 cd e2 c2 | dA FA D :|F2 fd A2 af | g3 f edcB | A2 ec Agec | f2 fd AdAF |D2 fd A2 af | gagf edcB | A2 ec A2 ge| d4 A2 D :|
